X:3091
T:Cliffs of Doneen, The
S:Digital Tradition, clffdnen
O:Irish
Z:dt:clffdnen
M:3/4
L:1/8
Q:1/4=100
W:You may travel far far from your own native land,
W:Far away o'er the mountains, far a-way o'er the foam,
W:But of all the fine places that I've ever been
W:Sure there's none can compare with the cliffs of Doneen.
W:
W:Take a view o'er the mountains, fine sights you'll see there
W:You'll see the high rocky mountains o'er the west coast of Clare
W:Oh the town af Kilkee and Kilrush can be seen
W:From the high rocky slopes round the cliffs of Doneen.
W:
W:It's a nice place to be on a fine summer's day
W:Watching all the wild flowers that ne'er do decay
W:Oh the hares and lofty pheasants are plain to be seen
W:Making homes for their young round the cliffs of Doneen.
W:
W:Fare thee well to Doneen, fare thee well for a while
W:And to all the kind people I'm leaving behind
W:To the streams and the meadows where late I have been
W:And the high rocky slopes round the cliffs of Doneen.
K:G
GG |"D"A3B d2|"G"B4 AG|"C"E2 C2 E2|"D7"D6-|"D7"D4 dd|\
"G"d4 ed|"G"B2 D2 GG|"D"A2 G2 A2|"G"B4 Bc|
"G"d2 d2 d2|"G"B2 D2 G2|"D"A3G A2|"Em"B4 BA|\
"G"G3-A Bd|"G"B2 A2 G2|"C"D2 C2 E2|"D7"D4 ||


